images/icons/colored-logo-3.svg

<svg width="97" height="50" viewBox="0 0 97 50" fill="none" xmlns="http://www.w3.org/2000/svg">
<path d="M24.5786 24.5764L24.7772 24.5344H41.2954L47.5023 30.7413H30.7437L24.5786 24.5764Z" fill="black"/>
<path d="M19.2609 24.5344L2.5022 24.5345L8.70908 30.7414H19.2607L19.2609 24.5344Z" fill="black"/>
<path d="M53.2703 6.70459H55.8444V14.7031H60.2655V16.87H53.2703V6.70459Z" fill="black"/>
<path d="M64.9387 17.0881C64.0758 17.0881 63.3199 16.933 62.6698 16.6227C62.0203 16.3028 61.5162 15.8666 61.1574 15.3139C60.8083 14.7516 60.6338 14.1069 60.6338 13.3797C60.6338 12.6526 60.8083 12.0127 61.1574 11.4601C61.5162 10.8978 62.0203 10.4615 62.6698 10.1513C63.3199 9.83132 64.0758 9.67139 64.9387 9.67139C65.8016 9.67139 66.5581 9.83132 67.2076 10.1513C67.857 10.4615 68.3563 10.8978 68.7053 11.4601C69.0641 12.0127 69.2435 12.6526 69.2435 13.3797C69.2435 14.1069 69.0641 14.7516 68.7053 15.3139C68.3563 15.8666 67.857 16.3028 67.2076 16.6227C66.5581 16.933 65.8016 17.0881 64.9387 17.0881ZM64.9387 15.0958C65.4525 15.0958 65.86 14.9455 66.1604 14.645C66.4705 14.3347 66.6256 13.913 66.6256 13.3797C66.6256 12.8465 66.4705 12.4296 66.1604 12.129C65.86 11.8188 65.4525 11.6637 64.9387 11.6637C64.4248 11.6637 64.0132 11.8188 63.7024 12.129C63.402 12.4296 63.2518 12.8465 63.2518 13.3797C63.2518 13.913 63.402 14.3347 63.7024 14.645C64.0132 14.9455 64.4248 15.0958 64.9387 15.0958Z" fill="black"/>
<path d="M74.0511 20.2148C73.5859 20.2148 73.1158 20.1712 72.6402 20.0839C72.175 19.9967 71.7731 19.8803 71.4338 19.7349V17.9607C72.1994 18.2903 73.072 18.4552 74.0511 18.4552C74.7589 18.4552 75.2679 18.3097 75.578 18.0188C75.8979 17.728 76.0578 17.3015 76.0578 16.7391V16.3173C75.7769 16.5597 75.4279 16.7488 75.0113 16.8845C74.6039 17.0203 74.1672 17.0881 73.702 17.0881C72.9656 17.0881 72.3155 16.933 71.7537 16.6227C71.1911 16.3126 70.7503 15.8762 70.4297 15.3139C70.1196 14.7516 69.9646 14.1069 69.9646 13.3797C69.9646 12.6429 70.1196 11.9933 70.4297 11.431C70.7406 10.8687 71.1765 10.4373 71.7391 10.1367C72.3009 9.82652 72.9462 9.67139 73.6728 9.67139C74.672 9.67139 75.496 9.97679 76.1454 10.5875V9.88952H78.6174V16.3901C78.6174 17.602 78.2447 18.5424 77.4979 19.2114C76.7608 19.8803 75.6121 20.2148 74.0511 20.2148ZM74.3417 15.1103C74.7395 15.1103 75.0934 15.0085 75.4035 14.8049C75.7136 14.6013 75.932 14.3299 76.0578 13.9905V12.769C75.9222 12.4296 75.699 12.163 75.3889 11.9691C75.0788 11.7655 74.7297 11.6637 74.3417 11.6637C73.8188 11.6637 73.3968 11.8188 73.0769 12.129C72.757 12.4296 72.5971 12.8417 72.5971 13.3652C72.5971 13.8984 72.757 14.325 73.0769 14.645C73.3968 14.9552 73.8188 15.1103 74.3417 15.1103Z" fill="black"/>
<path d="M83.5716 17.0881C82.7087 17.0881 81.9522 16.933 81.3027 16.6227C80.6533 16.3028 80.1492 15.8666 79.7904 15.3139C79.4413 14.7516 79.2668 14.1069 79.2668 13.3797C79.2668 12.6526 79.4413 12.0127 79.7904 11.4601C80.1492 10.8978 80.6533 10.4615 81.3027 10.1513C81.9522 9.83132 82.7087 9.67139 83.5716 9.67139C84.4345 9.67139 85.1904 9.83132 85.8405 10.1513C86.49 10.4615 86.9892 10.8978 87.3383 11.4601C87.6971 12.0127 87.8765 12.6526 87.8765 13.3797C87.8765 14.1069 87.6971 14.7516 87.3383 15.3139C86.9892 15.8666 86.49 16.3028 85.8405 16.6227C85.1904 16.933 84.4345 17.0881 83.5716 17.0881ZM83.5716 15.0958C84.0855 15.0958 84.4924 14.9455 84.7934 14.645C85.1036 14.3347 85.2585 13.913 85.2585 13.3797C85.2585 12.8465 85.1036 12.4296 84.7934 12.129C84.4924 11.8188 84.0855 11.6637 83.5716 11.6637C83.0578 11.6637 82.6455 11.8188 82.3354 12.129C82.035 12.4296 81.8848 12.8465 81.8848 13.3797C81.8848 13.913 82.035 14.3347 82.3354 14.645C82.6455 14.9455 83.0578 15.0958 83.5716 15.0958Z" fill="black"/>
<path d="M53.2703 20.6116H55.8444V30.777H53.2703V20.6116Z" fill="black"/>
<path d="M57.1475 23.7965H59.6195V24.4945C60.269 23.8838 61.0937 23.5784 62.0922 23.5784C62.8188 23.5784 63.4641 23.7335 64.0259 24.0438C64.5884 24.3443 65.0244 24.7757 65.3352 25.338C65.6454 25.8906 65.8004 26.5354 65.8004 27.2722C65.8004 27.9993 65.6454 28.6489 65.3352 29.2209C65.0244 29.7832 64.5884 30.2196 64.0259 30.5297C63.4738 30.84 62.8285 30.9951 62.0922 30.9951C61.6263 30.9951 61.1806 30.9224 60.7543 30.777C60.3371 30.6413 59.9881 30.4522 59.7072 30.2098V33.9619H57.1475V23.7965ZM61.4233 29.0028C61.9468 29.0028 62.3682 28.8477 62.6881 28.5374C63.0079 28.2272 63.1679 27.8054 63.1679 27.2722C63.1679 26.739 63.0079 26.3221 62.6881 26.0215C62.3682 25.7113 61.9468 25.5562 61.4233 25.5562C61.0353 25.5562 60.6862 25.658 60.3761 25.8616C60.0659 26.0554 59.8427 26.3221 59.7072 26.6614V27.8975C59.8427 28.2369 60.0659 28.5083 60.3761 28.7119C60.6862 28.9059 61.0353 29.0028 61.4233 29.0028Z" fill="black"/>
<path d="M69.6162 30.9951C69.0536 30.9951 68.4668 30.9369 67.8563 30.8206C67.2458 30.714 66.7604 30.5589 66.4023 30.3553V28.4793C66.7993 28.7119 67.2743 28.9059 67.8271 29.061C68.3896 29.2064 68.9034 29.2791 69.3686 29.2791C69.708 29.2791 69.9555 29.2548 70.1106 29.2064C70.2656 29.1579 70.3428 29.061 70.3428 28.9155C70.3428 28.7992 70.29 28.7071 70.1829 28.6393C70.0862 28.5617 69.902 28.4841 69.6308 28.4065C69.3686 28.3193 69.0634 28.2272 68.7143 28.1302C68.1226 27.9557 67.6574 27.7763 67.3181 27.5921C66.9787 27.4079 66.727 27.1753 66.5622 26.8941C66.3974 26.613 66.3147 26.259 66.3147 25.8324C66.3147 25.0763 66.6102 24.5139 67.2019 24.1456C67.8027 23.7674 68.6225 23.5784 69.6593 23.5784C70.1634 23.5784 70.6919 23.6317 71.2447 23.7383C71.8072 23.845 72.2286 23.9856 72.5102 24.1601V26.007C72.2188 25.8131 71.8315 25.6531 71.3469 25.5271C70.8713 25.4011 70.4255 25.338 70.0083 25.338C69.6788 25.338 69.4222 25.3719 69.2379 25.4398C69.0536 25.498 68.9619 25.6047 68.9619 25.7598C68.9619 25.9052 69.0536 26.0167 69.2379 26.0942C69.4222 26.1718 69.7518 26.2688 70.2267 26.3851C70.5368 26.4626 70.6682 26.4966 70.6195 26.4869C71.2398 26.6517 71.7196 26.8359 72.0589 27.0395C72.3982 27.2432 72.636 27.4855 72.7716 27.7667C72.917 28.0381 72.99 28.3871 72.99 28.8137C72.99 29.4827 72.6993 30.016 72.1173 30.4134C71.545 30.8012 70.7113 30.9951 69.6162 30.9951Z" fill="black"/>
<path d="M76.8118 30.995C75.8522 30.995 75.1298 30.7284 74.6451 30.1952C74.1702 29.6619 73.9324 28.9591 73.9324 28.0865V23.7964H76.492V27.7956C76.492 28.6003 76.8556 29.0027 77.5823 29.0027C77.9125 29.0027 78.2129 28.9251 78.4841 28.77C78.756 28.6149 78.9785 28.387 79.153 28.0865V23.7964H81.7126V30.7769H79.2406V30.0206C78.9402 30.3406 78.5766 30.583 78.1496 30.7478C77.7234 30.9126 77.277 30.995 76.8118 30.995Z" fill="black"/>
<path d="M83.0232 23.7965H85.3936V24.5527C85.6842 24.2425 86.0187 24.005 86.397 23.8401C86.7752 23.6656 87.1778 23.5784 87.6041 23.5784C88.1276 23.5784 88.5449 23.6559 88.855 23.811C89.1748 23.9662 89.4314 24.1988 89.6254 24.5091C89.9161 24.2182 90.27 23.9904 90.6872 23.8256C91.1037 23.6608 91.5258 23.5784 91.952 23.5784C92.8734 23.5784 93.5277 23.8159 93.9157 24.2909C94.3037 24.7563 94.4977 25.4301 94.4977 26.3124V30.777H92.0542V26.676C92.0542 26.2882 91.9812 26.007 91.8359 25.8324C91.6906 25.658 91.4479 25.5707 91.1086 25.5707C90.6726 25.5707 90.3187 25.7259 90.0475 26.036C90.0572 26.2009 90.0621 26.453 90.0621 26.7923V30.777H87.6187V26.5742C87.6187 26.2154 87.5554 25.9585 87.4295 25.8034C87.3037 25.6483 87.0805 25.5707 86.7606 25.5707C86.2662 25.5707 85.8393 25.847 85.4812 26.3996V30.777H83.0232V23.7965Z" fill="black"/>
<path d="M24.7774 24.5345L24.5787 24.5766L30.7435 30.7414V47.5H25.4676L19.2607 41.2931H24.5366V24.5344H19.2607V19.2587H24.5366V2.5L30.7435 8.70689V19.2586L24.5366 19.2587V24.5344L24.7774 24.5345Z" fill="#555555"/>
<path d="M41.2954 24.5344L47.5023 30.7413V25.4654L41.2954 19.2585V24.5344Z" fill="#555555"/>
<path d="M53.6338 35.5486H57.4003C58.4666 35.5486 59.2954 35.8007 59.8872 36.3049C60.4879 36.809 60.789 37.5555 60.789 38.5444C60.789 39.543 60.4928 40.2896 59.9018 40.7841C59.31 41.2785 58.4763 41.5257 57.4003 41.5257H54.7681V45.714H53.6338V35.5486ZM57.3131 40.5659C58.0403 40.5659 58.6126 40.4205 59.0291 40.1296C59.4463 39.8291 59.6542 39.3007 59.6542 38.5444C59.6542 37.7785 59.4463 37.2501 59.0291 36.9593C58.6126 36.6587 58.0403 36.5085 57.3131 36.5085H54.7681V40.5659H57.3131Z" fill="#555555"/>
<path d="M62.2402 34.9668H63.3597V45.7139H62.2402V34.9668Z" fill="#555555"/>
<path d="M68.2146 45.9321C67.2836 45.9321 66.566 45.68 66.0618 45.1758C65.5674 44.6717 65.3206 43.9979 65.3206 43.1544V38.7334H66.4401V43.2126C66.4401 44.4342 67.0749 45.045 68.3453 45.045C68.8787 45.045 69.3438 44.9286 69.7416 44.696C70.1484 44.4632 70.512 44.0948 70.8319 43.5907V38.7334H71.9521V45.7139H70.8611V44.6668C70.2311 45.5103 69.3487 45.9321 68.2146 45.9321Z" fill="#555555"/>
<path d="M76.414 45.9322C75.9579 45.9322 75.4684 45.8643 74.9448 45.7286C74.4212 45.6025 74.0144 45.4426 73.7231 45.2486V44.3034C74.0916 44.5264 74.5137 44.7057 74.9886 44.8414C75.4732 44.9772 75.9384 45.045 76.3848 45.045C76.9856 45.045 77.4174 44.9626 77.6789 44.7978C77.9507 44.6233 78.0863 44.3664 78.0863 44.0271C78.0863 43.7653 78.0279 43.5617 77.9118 43.4163C77.795 43.2611 77.6017 43.1254 77.3298 43.0091C77.0586 42.8927 76.6366 42.757 76.065 42.6019C75.5025 42.4468 75.0519 42.2868 74.7125 42.122C74.383 41.9474 74.1305 41.7293 73.956 41.4675C73.7815 41.2058 73.6946 40.8713 73.6946 40.4641C73.6946 39.8339 73.9463 39.354 74.4504 39.0244C74.9643 38.685 75.6429 38.5154 76.4864 38.5154C76.9418 38.5154 77.3687 38.559 77.7665 38.6462C78.1733 38.7238 78.5126 38.8353 78.7845 38.9808V39.926C78.5028 39.7709 78.1635 39.6497 77.7665 39.5624C77.3687 39.4655 76.9564 39.417 76.5302 39.417C75.9676 39.417 75.5414 39.4994 75.25 39.6642C74.9594 39.8291 74.8141 40.0957 74.8141 40.4641C74.8141 40.7162 74.8627 40.9101 74.9594 41.0458C75.0665 41.1815 75.2549 41.3076 75.5268 41.4239C75.8077 41.5306 76.2541 41.6663 76.8646 41.8311C77.7373 42.0735 78.3429 42.3595 78.6822 42.6892C79.0313 43.0091 79.2058 43.4551 79.2058 44.0271C79.2058 44.6184 78.9736 45.0838 78.5077 45.4232C78.0523 45.7625 77.3541 45.9322 76.414 45.9322Z" fill="#555555"/>
</svg>

<svg width="97" height="50" fill="none" xmlns="http://www.w3.org/2000/svg"><path d="m24.579 24.576.198-.042h16.518l6.207 6.207H30.744l-6.165-6.165ZM19.26 24.534H2.503l6.207 6.207h10.552v-6.207ZM53.27 6.705h2.574v7.998h4.422v2.167H53.27V6.705ZM64.939 17.088c-.863 0-1.62-.155-2.27-.465-.649-.32-1.153-.756-1.512-1.31-.349-.561-.523-1.206-.523-1.933 0-.727.174-1.367.523-1.92.36-.562.863-.999 1.513-1.309.65-.32 1.406-.48 2.269-.48.863 0 1.62.16 2.269.48.649.31 1.148.747 1.497 1.31.36.552.538 1.192.538 1.919 0 .727-.179 1.372-.538 1.934-.349.553-.848.989-1.497 1.309-.65.31-1.406.465-2.27.465Zm0-1.992c.514 0 .921-.15 1.221-.451.31-.31.466-.732.466-1.265 0-.534-.156-.95-.466-1.251-.3-.31-.707-.465-1.221-.465-.514 0-.926.155-1.237.465-.3.3-.45.718-.45 1.25 0 .534.15.956.45 1.266.311.3.723.45 1.237.45ZM74.051 20.215a7.8 7.8 0 0 1-1.41-.131 5.779 5.779 0 0 1-1.207-.35v-1.773c.765.33 1.638.494 2.617.494.708 0 1.217-.145 1.527-.436.32-.291.48-.717.48-1.28v-.422c-.281.243-.63.432-1.047.567a4.116 4.116 0 0 1-1.309.204c-.736 0-1.386-.155-1.948-.465a3.371 3.371 0 0 1-1.324-1.31c-.31-.561-.465-1.206-.465-1.933 0-.737.155-1.387.465-1.949a3.18 3.18 0 0 1 1.31-1.294c.56-.31 1.206-.466 1.933-.466.999 0 1.823.306 2.472.917V9.89h2.472v6.5c0 1.212-.372 2.152-1.12 2.821-.736.67-1.885 1.004-3.446 1.004Zm.29-5.105a1.89 1.89 0 0 0 1.063-.305c.31-.204.528-.475.654-.814v-1.222a1.638 1.638 0 0 0-.67-.8 1.866 1.866 0 0 0-1.046-.305c-.523 0-.945.155-1.265.465-.32.3-.48.713-.48 1.236 0 .533.16.96.48 1.28.32.31.742.465 1.265.465ZM83.572 17.088c-.863 0-1.62-.155-2.27-.465-.649-.32-1.153-.756-1.512-1.31-.349-.561-.523-1.206-.523-1.933 0-.727.174-1.367.523-1.92.36-.562.863-.999 1.513-1.309.65-.32 1.406-.48 2.269-.48.862 0 1.618.16 2.269.48.649.31 1.148.747 1.497 1.31.36.552.538 1.192.538 1.919 0 .727-.179 1.372-.538 1.934-.349.553-.848.989-1.497 1.309-.65.31-1.406.465-2.27.465Zm0-1.992c.513 0 .92-.15 1.221-.451.31-.31.465-.732.465-1.265 0-.534-.154-.95-.465-1.251-.3-.31-.708-.465-1.221-.465-.514 0-.927.155-1.237.465-.3.3-.45.718-.45 1.25 0 .534.15.956.45 1.266.31.3.723.45 1.237.45ZM53.27 20.612h2.574v10.165H53.27V20.612ZM57.148 23.797h2.471v.697c.65-.61 1.475-.916 2.473-.916.727 0 1.372.155 1.934.466.562.3.998.732 1.31 1.294.31.553.464 1.197.464 1.934 0 .727-.155 1.377-.465 1.949-.31.562-.747.999-1.31 1.309-.551.31-1.197.465-1.933.465-.466 0-.911-.073-1.338-.218a3.002 3.002 0 0 1-1.047-.567v3.752h-2.56V23.796Zm4.275 5.206c.524 0 .945-.155 1.265-.466.32-.31.48-.732.48-1.265 0-.533-.16-.95-.48-1.25-.32-.31-.741-.466-1.265-.466-.388 0-.737.102-1.047.306-.31.193-.533.46-.669.8v1.236c.136.339.359.61.67.814.31.194.658.29 1.046.29ZM69.616 30.995c-.562 0-1.15-.058-1.76-.174-.61-.107-1.096-.262-1.454-.466V28.48c.397.233.872.427 1.425.582a6.204 6.204 0 0 0 1.542.218c.339 0 .587-.024.742-.073.155-.048.232-.145.232-.29a.312.312 0 0 0-.16-.277c-.097-.077-.281-.155-.552-.232a19.37 19.37 0 0 0-.917-.277c-.591-.174-1.057-.354-1.396-.538-.34-.184-.591-.417-.756-.698-.165-.281-.247-.635-.247-1.062 0-.756.295-1.318.887-1.686.6-.379 1.42-.568 2.457-.568.504 0 1.033.054 1.586.16.562.107.984.248 1.265.422v1.847c-.291-.194-.678-.354-1.163-.48a5.238 5.238 0 0 0-1.339-.189c-.33 0-.586.034-.77.102-.184.058-.276.165-.276.32 0 .145.092.257.276.334.184.078.514.175.989.291.31.078.441.112.392.102.62.165 1.1.349 1.44.553.34.203.577.445.713.727.145.271.218.62.218 1.047 0 .669-.29 1.202-.873 1.6-.572.387-1.406.581-2.5.581ZM76.812 30.995c-.96 0-1.682-.267-2.167-.8-.475-.533-.713-1.236-.713-2.108v-4.29h2.56v3.999c0 .804.364 1.207 1.09 1.207.33 0 .63-.078.902-.233a1.81 1.81 0 0 0 .669-.683v-4.29h2.56v6.98H79.24v-.756c-.3.32-.664.562-1.091.727a3.68 3.68 0 0 1-1.338.247ZM83.023 23.797h2.37v.756c.291-.31.626-.548 1.004-.713.378-.174.78-.262 1.207-.262.524 0 .94.078 1.251.233.32.155.576.388.77.698.291-.29.645-.519 1.062-.683a3.414 3.414 0 0 1 1.265-.248c.921 0 1.576.238 1.964.713.388.465.582 1.14.582 2.021v4.465h-2.444v-4.101c0-.388-.073-.669-.218-.844-.145-.174-.388-.261-.727-.261-.436 0-.79.155-1.061.465.01.165.014.417.014.756v3.985H87.62v-4.203c0-.359-.064-.616-.19-.77-.125-.156-.349-.233-.668-.233-.495 0-.922.276-1.28.829v4.377h-2.458v-6.98Z" fill="#000"/><path d="m24.777 24.535-.198.042 6.165 6.164V47.5h-5.276l-6.207-6.207h5.276V24.534H19.26V19.26h5.276V2.5l6.207 6.207v10.552h-6.207v5.275h.24ZM41.295 24.534l6.207 6.207v-5.276l-6.207-6.206v5.275ZM53.634 35.549H57.4c1.067 0 1.895.252 2.487.756.6.504.902 1.25.902 2.24 0 .998-.296 1.745-.887 2.24-.592.494-1.426.74-2.502.74h-2.632v4.189h-1.134V35.549Zm3.68 5.017c.726 0 1.299-.146 1.715-.436.417-.3.625-.83.625-1.586 0-.765-.208-1.294-.625-1.585-.416-.3-.989-.45-1.716-.45h-2.545v4.057h2.545ZM62.24 34.967h1.12v10.747h-1.12V34.967ZM68.215 45.932c-.931 0-1.649-.252-2.153-.756-.495-.504-.741-1.178-.741-2.022v-4.42h1.12v4.479c0 1.221.634 1.832 1.904 1.832.534 0 .999-.116 1.397-.349.406-.233.77-.601 1.09-1.105v-4.858h1.12v6.98h-1.09v-1.046c-.63.843-1.513 1.265-2.647 1.265ZM76.414 45.932c-.456 0-.946-.068-1.47-.203-.523-.127-.93-.286-1.22-.48v-.946c.368.223.79.403 1.265.538.484.136.95.204 1.396.204.6 0 1.032-.082 1.294-.247.272-.175.407-.432.407-.77 0-.263-.058-.466-.174-.612-.117-.155-.31-.29-.582-.407-.271-.116-.693-.252-1.265-.407-.563-.155-1.013-.315-1.352-.48a2.02 2.02 0 0 1-.757-.654c-.175-.262-.261-.597-.261-1.004 0-.63.251-1.11.755-1.44.514-.339 1.193-.509 2.036-.509.456 0 .883.044 1.28.131.407.078.747.19 1.018.335v.945a3.801 3.801 0 0 0-1.018-.364 5.207 5.207 0 0 0-1.236-.145c-.562 0-.989.082-1.28.247-.29.165-.436.432-.436.8 0 .252.049.446.145.582.108.136.296.262.568.378.28.107.727.242 1.338.407.872.242 1.478.528 1.817.858.35.32.524.766.524 1.338 0 .591-.232 1.057-.698 1.396-.456.34-1.154.51-2.094.51Z" fill="#555"/></svg>
